!!!COM:	Josquin des Pres
**kern	**kern
*part2	*part1
*staff2	*staff1
*clefF4	*clefF4
*k[]	*k[]
*M2/1	*M2/1
=1-	=1-
1.D	(>0D
2E	.
=2	=2
1F	1D)
1G	1E
=3	=3
1A	0F
1D	.
=4	=4
2E	0G
2C	.
1BB	.
=5	=5
2.AA	0A
4BB	.
2C	.
[2D	.
=6	=6
4D]	0D
4E	.
4F	.
4G	.
2A	.
2B	.
=7	=7
2G	1E
2.c	.
.	1C
4B	.
2A	.
=8	=8
2G	0BB
1A	.
2G	.
=9	=9
[0A	1.AA
.	2BB
=10	=10
0A]	1C
.	(>1D
=11	=11
1r	2D)
.	2E
[1D	2F
.	2G
=12	=12
2D]	1A
2C	.
2D	1B
[2E	.
=13	=13
2E]	1G
1C	.
.	(>1c
4BB	.
4AA	.
=14	=14
2AA	2c)
2E	2B
2F	1A
2D	.
=15	=15
2E	1G
1C	.
.	(>1A
[2D	.
=16	=16
2D]	1A)
2AA	.
1BB	1G
=17	=17
0AA	0A
==	==
*-	*-
!!!RDF**kern: > = above
